icons/Document Contracticons.svg

<svg width="16" height="16" viewBox="0 0 16 16" fill="none" xmlns="http://www.w3.org/2000/svg">
<path d="M12.2952 15H3.47384C3.10628 15 2.79999 14.6937 2.79999 14.3261V1.89049C2.79999 1.46167 3.16754 1.09412 3.59636 1.09412H10.0899C10.3349 1.09412 10.5799 1.15538 10.7637 1.33915L11.315 1.82923C11.4376 1.89049 11.4376 2.07427 11.315 2.13553C11.2538 2.25805 11.07 2.25805 11.0087 2.13553L10.4574 1.64545C10.3962 1.58419 10.2736 1.52293 10.0899 1.52293H3.59636C3.41258 1.52293 3.29006 1.64545 3.29006 1.82923V14.3261C3.29006 14.4487 3.35132 14.5099 3.47384 14.5099H12.2952C12.5402 14.5099 12.724 14.3261 12.724 14.0811V4.03457C12.724 3.91205 12.6628 3.78953 12.5402 3.66701L11.9276 3.11568C11.8051 3.05442 11.8051 2.87064 11.9276 2.80938C11.9889 2.68686 12.1727 2.68686 12.2339 2.80938L12.8465 3.36071C13.0916 3.60575 13.1528 3.78953 13.1528 4.09583V14.1424C13.2141 14.5712 12.7853 15 12.2952 15V15Z" fill="#3D3D3D"/>
<path d="M11.3763 8.26147H4.69902C4.5765 8.26147 4.45398 8.13895 4.45398 8.01643C4.45398 7.89391 4.5765 7.77139 4.69902 7.77139H11.3763C11.4988 7.77139 11.6213 7.89391 11.6213 8.01643C11.6213 8.13895 11.4988 8.26147 11.3763 8.26147ZM11.3763 10.283H4.69902C4.5765 10.283 4.45398 10.1605 4.45398 10.038C4.45398 9.91547 4.5765 9.79295 4.69902 9.79295H11.3763C11.4988 9.79295 11.6213 9.91547 11.6213 10.038C11.6213 10.1605 11.4988 10.283 11.3763 10.283ZM11.3763 12.3046H4.69902C4.5765 12.3046 4.45398 12.1821 4.45398 12.0596C4.45398 11.937 4.5765 11.8145 4.69902 11.8145H11.3763C11.4988 11.8145 11.6213 11.937 11.6213 12.0596C11.6213 12.1821 11.4988 12.3046 11.3763 12.3046Z" fill="#3D3D3D"/>
</svg>

<svg xmlns="http://www.w3.org/2000/svg" width="16" height="16" fill="currentColor" class="si si-Document Contracticons" viewBox="0 0 16 16">
  <path d="M12.295 15H3.474a.68.68 0 0 1-.674-.674V1.89a.81.81 0 0 1 .796-.796h6.494c.245 0 .49.061.674.245l.551.49c.123.061.123.245 0 .307-.061.122-.245.122-.306 0l-.552-.49c-.06-.062-.183-.123-.367-.123H3.596c-.183 0-.306.122-.306.306v12.497q0 .184.184.184h8.821a.42.42 0 0 0 .429-.429V4.035q0-.184-.184-.368l-.612-.551a.174.174 0 0 1 0-.307c.06-.122.245-.122.306 0l.613.552c.245.245.306.429.306.735v10.046c.061.43-.368.858-.858.858"/>
  <path d="M11.376 8.261H4.7a.264.264 0 0 1-.245-.245c0-.122.123-.245.245-.245h6.677c.123 0 .245.123.245.245a.263.263 0 0 1-.245.245m0 2.022H4.7a.263.263 0 0 1-.245-.245c0-.123.123-.245.245-.245h6.677c.123 0 .245.122.245.245a.263.263 0 0 1-.245.245m0 2.022H4.7a.263.263 0 0 1-.245-.245c0-.123.123-.245.245-.245h6.677c.123 0 .245.122.245.245a.263.263 0 0 1-.245.245"/>
</svg>
